raw/symbols/snx.svg

<svg width="42" height="42" viewBox="0 0 42 42" fill="none" xmlns="http://www.w3.org/2000/svg">
<g clip-path="url(#clip0_1915_201505)">
<circle cx="21" cy="21" r="21" fill="#60CDF9"/>
<path d="M13.9027 17.1802C13.7418 16.9804 13.4977 16.8695 13.2369 16.8695H7.86084C7.81646 16.8695 7.77762 16.8528 7.74434 16.8251C7.7166 16.7974 7.69995 16.7641 7.69995 16.7252V13.1024C7.69995 13.0635 7.7166 13.0302 7.74434 13.0025C7.77762 12.9692 7.81646 12.9526 7.86084 12.9581H13.542C14.9734 12.9581 16.2107 13.5462 17.2537 14.7168L18.6352 16.4034L15.9444 19.6823L13.9027 17.1802ZM23.8337 14.7002C24.8712 13.5407 26.1139 12.9581 27.562 12.9581H33.2265C33.2654 12.9526 33.3042 12.9692 33.3319 12.9914C33.3597 13.0191 33.3708 13.058 33.3652 13.1024V16.7252C33.3652 16.7641 33.3541 16.7974 33.3319 16.8251C33.3042 16.8584 33.2654 16.875 33.2265 16.8695H27.8505C27.5953 16.8639 27.3511 16.9804 27.1847 17.1802L23.2234 22.0014L27.2013 26.856C27.3622 27.0391 27.6008 27.15 27.8449 27.1445H33.221C33.2598 27.1389 33.3042 27.1611 33.3264 27.1889C33.3486 27.2221 33.3652 27.2665 33.3597 27.3054V30.9282C33.3597 30.9671 33.3486 31.0004 33.3264 31.0281C33.2987 31.0614 33.2598 31.078 33.221 31.0725H27.562C26.1139 31.0725 24.8823 30.4844 23.8503 29.3138L20.5548 25.2914L17.2592 29.3138C16.2218 30.4844 14.979 31.0725 13.531 31.0725H7.86084C7.82201 31.078 7.77762 31.0558 7.75543 31.0281C7.72769 30.9948 7.71659 30.9504 7.72214 30.9116V27.2887C7.72214 27.2499 7.73324 27.2166 7.75543 27.1889C7.78317 27.1556 7.82201 27.1389 7.86084 27.1445H13.2369C13.4921 27.1445 13.7362 27.028 13.9027 26.8338L17.7919 22.0846L23.8337 14.7002Z" fill="#F3F3F3"/>
</g>
<defs>
<clipPath id="clip0_1915_201505">
<rect width="42" height="42" fill="white"/>
</clipPath>
</defs>
</svg>

<svg xmlns="http://www.w3.org/2000/svg" width="42" height="42" fill="none"><g clip-path="url(#a)"><circle cx="21" cy="21" r="21" fill="#60CDF9"/><path fill="#F3F3F3" d="M13.903 17.18a.848.848 0 0 0-.666-.31H7.86a.18.18 0 0 1-.117-.045.139.139 0 0 1-.044-.1v-3.623c0-.039.017-.072.044-.1a.136.136 0 0 1 .117-.044h5.681c1.431 0 2.669.588 3.712 1.759l1.381 1.686-2.69 3.28-2.042-2.503Zm9.93-2.48c1.038-1.16 2.28-1.742 3.729-1.742h5.665a.142.142 0 0 1 .105.033.128.128 0 0 1 .033.111v3.623a.155.155 0 0 1-.033.1.116.116 0 0 1-.105.044H27.85a.846.846 0 0 0-.666.311l-3.962 4.821 3.978 4.855c.161.183.4.294.644.288h5.376a.124.124 0 0 1 .105.045.179.179 0 0 1 .034.116v3.623a.155.155 0 0 1-.034.1.116.116 0 0 1-.105.045h-5.659c-1.448 0-2.68-.589-3.712-1.76l-3.295-4.022-3.296 4.023c-1.037 1.17-2.28 1.759-3.728 1.759h-5.67a.125.125 0 0 1-.106-.045.152.152 0 0 1-.033-.116v-3.623c0-.04.011-.072.033-.1a.116.116 0 0 1 .106-.044h5.376c.255 0 .5-.117.666-.311l3.889-4.75 6.042-7.384Z"/></g><defs><clipPath id="a"><path fill="#fff" d="M0 0h42v42H0z"/></clipPath></defs></svg>
